icons/svgs/arrow-up-solid.svg

<svg width="24" height="24" viewBox="0 0 24 24" fill="none" xmlns="http://www.w3.org/2000/svg">
<path d="M13.3594 3.64062L19.6094 9.89062C20.1172 10.3594 20.1172 11.1797 19.6094 11.6484C19.1406 12.1562 18.3203 12.1562 17.8516 11.6484L13.75 7.54688V19.5C13.75 20.2031 13.1641 20.75 12.5 20.75C11.7969 20.75 11.25 20.2031 11.25 19.5V7.54688L7.10938 11.6484C6.64062 12.1562 5.82031 12.1562 5.35156 11.6484C4.84375 11.1797 4.84375 10.3594 5.35156 9.89062L11.6016 3.64062C12.0703 3.13281 12.8906 3.13281 13.3594 3.64062Z" fill="black"/>
</svg>

<svg xmlns="http://www.w3.org/2000/svg" width="24" height="24" fill="currentColor" class="icon-arrow-up-solid" viewBox="0 0 24 24">
  <mask id="a" width="16" height="18" x="4" y="3" maskUnits="userSpaceOnUse" style="mask-type:alpha">
    <path d="m13.36 3.64 6.25 6.25c.507.47.507 1.29 0 1.758a1.205 1.205 0 0 1-1.758 0L13.75 7.547V19.5c0 .703-.586 1.25-1.25 1.25-.703 0-1.25-.547-1.25-1.25V7.547l-4.14 4.101a1.205 1.205 0 0 1-1.758 0 1.205 1.205 0 0 1 0-1.757l6.25-6.25a1.205 1.205 0 0 1 1.757 0"/>
  </mask>
  <g mask="url(#a)">
    <path d="M0 0h24v24H0z"/>
  </g>
</svg>
